X:1
T:In the Pleasant Land of Heaven
T:In the Pleasant Land of Heaven
T:James Ramsey Murray
T:Robert V. Murray, 1877
T:Public Domain Courtesy of the Cyber Hymnal™
T:Public Domain Courtesy of the Cyber Hymnal™
C:James Ramsey Murray
Z:Public Domain
Z:Courtesy of the Cyber Hymnal™
%%score ( 1 2 ) ( 3 4 )
L:1/8
Q:1/4=107
M:4/4
K:Bb
V:1 treble 
V:2 treble 
V:3 bass 
V:4 bass 
V:1
 [B,D]>[CE] | [DF]2 [DB]2 [DB]2 [Fd]2 | [Fc]4 [DB]2 [FB]>[FA] | [EG]2 [EG]2 [GB]3 [EB] | %4
w: 1.~In the|plea- sant land of|Hea- ven, From all|earth’s sad doubts and|
w: 2.~In the|plea- sant land of|Hea- ven, All our|thought shall be in|
w: 3.~In the|plea- sant land of|Hea- ven, Oh, what|rap- tures wait us|
 [DF]6 [B,D]>[CE] | [DF]2 [DB]2 [DB]2 [Fd]2 | [Fd]4 [DB]2 [Gc]>[Gd] | [Ge]2 [EG]2 [EA]2 [EF]2 | %8
w: fears, Where there|ne- ver comes a|sor- row, Thro’ the|great e- ter- nal|
w: love; Ev- ery|good af- fect- ion|guide us, In our|hap- py home a-|
w: there! By the|life stream ev- er|flow- ing, Thro’ the|ci- ty won- drous|
 [DB]6 [CA]>[DB] | [Ec]2 [Ec]2 [Fd]3 [Ec] | [Ec]2 [DB]4 [FB]>[FA] | [EG]2 [EB]2 [=Ec]3 [EB] | %12
w: years; Where the|dear ones, bright and|bless- èd, Walk the|qui- et wa- ters|
w: bove; All our|way shall end in|bright- ness, There is|no o’er- cloud- ed|
w: fair; Sweet the|hap- py an- gel|voic- es, Glad the|strain they raise on|
 [Fc]6 [Fd]>[Ec] | [DB]2 [DB]2 [EG]2 [EG]2 | [DF]4 [B,D]2 [B,D]>[CE] | [DF]2 [DB]2 [Ec]3 [DB] | %16
w: nigh, In the|plea- sant land of|Hea- ven, Will you|meet me by and|
w: sky; In the|plea- sant land of|Hea- ven, Will you|meet me by and|
w: high, In the|plea- sant land of|Hea- ven, Will you|meet me by and|
 [DB]6 ||"^Refrain" [DB]>[Ec] | [Fd]2 [DF]2 [DF]2 [FB]>[FA] | [EA]2 [EG]2 [EG]2 [EA]>[EG] | %20
w: by?||||
w: by?|O the|plea- sant land, O the|plea- sant land, Land be-|
w: by?||||
 [EG]2 [DF]2 [FB]2 F2 | [Fc]6 [Fd]>[Ec] | [DB]2 [DF]2 [DF]2 [Ge]>[Fd] | %23
w: |||
w: yond earth’s cloud- ed|sky In that|good- ly land, in that|
w: |||
 [Ec]2 [EG]2 [EG]2 [EA]>[EG] | [DF]2 [DB]2 [Ec]3 [DB] | [DB]6 |] %26
w: |||
w: good- ly land, Will you|meet me by and|by?|
w: |||
V:2
 x2 | x8 | x8 | x8 | x8 | x8 | x8 | x8 | x8 | x8 | x8 | x8 | x8 | x8 | x8 | x8 | x6 || x2 | x8 | %19
 x8 | x6 F2 | x8 | x8 | x8 | x8 | x6 |] %26
V:3
 [B,,F,]>[B,,B,] | [B,,B,]2 [B,,F,]2 [B,,F,]2 [B,,B,]2 | [B,,B,]4 [B,,B,]2 [D,B,]>[D,B,] | %3
 [E,B,]2 [E,B,]2 [E,B,]3 [G,B,] | B,6 [B,,F,]>[B,,B,] | [B,,B,]2 [B,,F,]2 [B,,F,]2 [B,,B,]2 | %6
 [B,,B,]4 [B,,B,]2 [E,B,]>[D,=B,] | [C,C]2 [C,C]2 [F,C]2 [F,C]2 | [B,,B,]6 F,>F, | %9
 [F,A,]2 [F,A,]2 [F,A,]3 [F,A,] | [B,,B,]2 [B,,B,]4 [D,B,]>[D,B,] | %11
 [E,B,]2 [E,G,]2 [C,G,]3 [C,G,] | [F,A,]6 [F,A,]>[F,A,] | [B,,B,]2 [B,,B,]2 [B,,B,]2 [B,,B,]2 | %14
 [B,,B,]4 [B,,F,]2 [B,,F,]>[B,,B,] | [B,,B,]2 [G,B,]2 [F,A,]3 [B,,B,] | [B,,B,]6 || B,>B, | %18
 B,2 B,2 B,2 [D,B,]>[D,B,] | [E,B,]2 [E,B,]2 [E,B,]2 [E,B,]>[E,B,] | %20
 [B,,B,]2 [B,,B,]2 [D,B,]2 [D,B,]2 | [F,A,]6 [F,A,]>[F,A,] | %22
 [B,,B,]2 [B,,B,]2 [B,,B,]2 [B,,B,]>[B,,B,] | [E,G,]2 [E,C]2 [E,C]2 [E,C]>[E,C] | %24
 [F,B,]2 [F,B,]2 [F,A,]3 [B,,B,] | [B,,B,]6 |] %26
V:4
 x2 | x8 | x8 | x8 | B,6 x2 | x8 | x8 | x8 | x6 F,>F, | x8 | x8 | x8 | x8 | x8 | x8 | x8 | x6 || %17
 B,>B, | B,2 B,2 B,2 x2 | x8 | x8 | x8 | x8 | x8 | x8 | x6 |] %26

